Numix-Light/scalable/actions/mail-attachment-symbolic.svg

<?xml version="1.0" encoding="UTF-8" standalone="no"?>
<svg
   xmlns:dc="http://purl.org/dc/elements/1.1/"
   xmlns:cc="http://creativecommons.org/ns#"
   xmlns:rdf="http://www.w3.org/1999/02/22-rdf-syntax-ns#"
   xmlns:svg="http://www.w3.org/2000/svg"
   xmlns="http://www.w3.org/2000/svg"
   xmlns:sodipodi="http://sodipodi.sourceforge.net/DTD/sodipodi-0.dtd"
   xmlns:inkscape="http://www.inkscape.org/namespaces/inkscape"
   width="16"
   height="16"
   viewBox="0 0 16 16"
   id="svg2"
   version="1.1"
   inkscape:version="0.91 r"
   sodipodi:docname="mail-attachment-symbolic.svg">
  <metadata
     id="metadata28">
    <rdf:RDF>
      <cc:Work
         rdf:about="">
        <dc:format>image/svg+xml</dc:format>
        <dc:type
           rdf:resource="http://purl.org/dc/dcmitype/StillImage" />
        <dc:title />
      </cc:Work>
    </rdf:RDF>
  </metadata>
  <defs
     id="defs26" />
  <sodipodi:namedview
     pagecolor="#ffffff"
     bordercolor="#666666"
     borderopacity="1"
     objecttolerance="10"
     gridtolerance="10"
     guidetolerance="10"
     inkscape:pageopacity="0"
     inkscape:pageshadow="2"
     inkscape:window-width="1920"
     inkscape:window-height="1056"
     id="namedview24"
     showgrid="true"
     inkscape:zoom="8"
     inkscape:cx="-47.5859"
     inkscape:cy="-8.3502253"
     inkscape:window-x="0"
     inkscape:window-y="24"
     inkscape:window-maximized="1"
     inkscape:current-layer="svg2"
     showguides="true">
    <inkscape:grid
       type="xygrid"
       id="grid4186" />
  </sodipodi:namedview>
  <rect
     style="opacity:1;fill:none;fill-opacity:1;fill-rule:nonzero;stroke:none;stroke-width:2;stroke-linecap:square;stroke-linejoin:miter;stroke-miterlimit:4;stroke-dasharray:none;stroke-dashoffset:0;stroke-opacity:1"
     id="rect4134"
     width="2"
     height="10"
     x="5"
     y="-0.24993181"
     rx="0.5"
     ry="0.5" />
  <path
     style="opacity:1;fill:#353535;fill-opacity:1;fill-rule:nonzero;stroke:none;stroke-width:2;stroke-linecap:square;stroke-linejoin:miter;stroke-miterlimit:4;stroke-dasharray:none;stroke-dashoffset:0;stroke-opacity:1"
     d="m 9,5.0975e-4 c -0.5181212,0 -1.0362424,0.13454618 -1.5,0.40233093 C 6.5724848,0.93841019 6,1.929339 6,3.0004142 c 0,2.7265489 0,5.0799509 0,7.4997608 0,0.713794 0.3818827,1.375421 1,1.732367 0.6181173,0.356946 1.3818826,0.356946 2,0 0.6181174,-0.356946 1,-1.018573 1,-1.732367 0,-1.749944 0,-3.4998883 0,-5.2498325 0,-0.1384956 -0.1115,-0.249992 -0.25,-0.249992 l -0.5,0 c -0.1385,0 -0.25,0.1114964 -0.25,0.249992 0,1.7499442 0,3.4998885 0,5.2498325 0,0.35823 -0.1899141,0.688094 -0.5,0.867161 -0.3100859,0.179064 -0.6899141,0.179065 -1,0 C 7.1899141,11.188269 7,10.858405 7,10.500175 7,7.9125542 7,5.2257665 7,3.0004142 7,2.2849334 7.3805098,1.625756 8,1.2680475 c 0.6194902,-0.3577084 1.3805098,-0.35770843 2,0 0.61949,0.3577085 1,1.0168859 1,1.7323667 0,3.2478387 0,6.1351372 0,8.9997128 0,1.07274 -0.571107,2.061229 -1.5,2.597574 -0.9288927,0.536346 -2.0711073,0.536346 -3,0 C 5.5711073,14.061356 5,13.072867 5,12.000127 5,9.0835537 5,6.16698 5,3.2504062 5,3.1119106 4.8885,3.0004142 4.75,3.0004142 l -0.5,0 c -0.1385,0 -0.25,0.1114964 -0.25,0.249992 0,2.9165738 0,5.8331475 0,8.7497208 -10e-8,1.428348 0.7630851,2.750536 2,3.464734 1.2369149,0.714198 2.7630851,0.714198 4,0 1.236915,-0.714198 2,-2.036386 2,-3.464734 C 12,8.8907826 12,5.6722031 12,3.0004142 12,1.929339 11.427515,0.93841024 10.5,0.40284068 10.036242,0.1350559 9.5181212,5.0975e-4 9,5.0975e-4 Z"
     id="rect4135"
     inkscape:connector-curvature="0"
     sodipodi:nodetypes="ssccssccssccssccssccssccssccssccss" />
</svg>

<svg xmlns="http://www.w3.org/2000/svg" viewBox="0 0 16 16">
 <path d="m 9 0.001 c -0.518 0 -1.036 0.135 -1.5 0.402 c -0.928 0.536 -1.5 1.526 -1.5 2.598 c 0 2.727 0 5.08 0 7.5 0 0.714 0.382 1.375 1 1.732 0.618 0.357 1.382 0.357 2 0 0.618 -0.357 1 -1.019 1 -1.732 0 -1.75 0 -3.5 0 -5.25 0 -0.138 -0.111 -0.25 -0.25 -0.25 l -0.5 0 c -0.139 0 -0.25 0.111 -0.25 0.25 0 1.75 0 3.5 0 5.25 0 0.358 -0.19 0.688 -0.5 0.867 -0.31 0.179 -0.69 0.179 -1 0 c -0.31 -0.179 -0.5 -0.509 -0.5 -0.867 0 -2.588 0 -5.274 0 -7.5 0 -0.715 0.381 -1.375 1 -1.732 c 0.619 -0.358 1.381 -0.358 2 0 0.619 0.358 1 1.017 1 1.732 0 3.248 0 6.135 0 9 0 1.073 -0.571 2.061 -1.5 2.598 -0.929 0.536 -2.071 0.536 -3 0 c -0.929 -0.536 -1.5 -1.525 -1.5 -2.598 0 -2.917 0 -5.833 0 -8.75 0 -0.138 -0.112 -0.25 -0.25 -0.25 l -0.5 0 c -0.138 0 -0.25 0.111 -0.25 0.25 0 2.917 0 5.833 0 8.75 0 1.428 0.763 2.751 2 3.465 1.237 0.714 2.763 0.714 4 0 1.237 -0.714 2 -2.036 2 -3.465 c 0 -3.109 0 -6.328 0 -9 0 -1.071 -0.572 -2.062 -1.5 -2.598 -0.464 -0.268 -0.982 -0.402 -1.5 -0.402" style="fill:#353535;opacity:1;fill-opacity:1;stroke:none;fill-rule:nonzero"/>
</svg>
